X: 1
T: The Weaver and His Wife
N: Nottingham Music Database
C: Andrew Rankine
M: 6/8
K: A
E \
| "A"E2E E>AB | c3 A3 | c3 A2c | e>dc "Bm"B3 \
| "E7"E2E E>Bc | d3 B2G | E2e d>cB |1 "A"c3- c2 :|2 "A"A3 -A2 ||
|: "(E)"G/F/ \
| "A"E>Ac e3 | E>Ae c3 | E>Ac edc | "Bm"d3 -d>Bc \
| "E7"d>ed B>dB | G3 F3 | E2e d>cB |1 "A"c3 -c2 :|2 "A"A3 -A2 |]

%%sep 1 1 500

